X:344
T: Women you gongchandang geilinglu
N: C1845
O: China, Qinghai Huzhu
S: I, 215]
N: Tu
R: Wuge, Anzhao]
M: 3/8
L: 1/16
K: Eb
c6 | cec3B | G2B2c2 | G2F3E | F6- | F6
C2C2C2 | F2E2FE | B2G2GB | G2F2E2 | F6- | F6
c6 | cec3B | G2B2c2 | G2F3E | F6- | F6
C2C2C2 | F2E2FE | B2G2GB | G2F2E2 | F6- | F6
c6 | cec3B | G2B2c2 | G2F3E | F6- | F6

